X:18067
T:Up Sligo
T:Creel of Turf, The
T:Lark's March, The
T:Green Meadow, The
R:jig
D:Molloy, Peoples, Brady
Z:id:hn-jig-59
M:6/8
K:Edor
EBB BAG|FDF AGF|EBB GBd|AGF EFD|EBB BAG|FDF ABc|dcd B/c/dB|AGF ~E3:|
|:Bee ede|~f3 dBA|Bee ede|fec d2A|Bee ede|fef dBA|BdB GBd|AGF ~E3:|
